X:1
T:Believe and Obey
T:Ira David Sankey
T:Believe and Obey
T:Public Domain
T:Public Domain
C:Ira David Sankey
Z:Public Domain
%%score ( 1 2 ) ( 3 4 )
L:1/8
M:3/4
K:D
V:1 treble 
V:2 treble 
V:3 bass 
V:4 bass 
V:1
 [FA]2 | [FA]2 [DF]2 [GB]2 | [FA]2 [DF]2 [Fd]2 | [Gc]2 [GB]2 [Gc]2 | [Fd]4 [FA]2 | %5
w: 1.~Press|on- ward, press|on- ward, and|trust- ing the|Lord, Re-|
w: 2.~Press|on- ward, press|on- ward, if|you would se-|cure The|
w: 3.~Press|on- ward, press|on- ward, your|cour- age re-|new; The|
 [GB]2 [DG]2 [GB]2 | [Bd]2 [Ac]2 [GB]2 | [FA]2 [FA]2 [DF]2 | [CE]4 [GA]2 | [FA]2 [DF]2 [GB]2 | %10
w: mem- ber the|prom- ise pro-|claimed in His|Word; He|guid- eth the|
w: rest of the|faith- ful, a-|bid- ing and|sure; The|gift of sal-|
w: prize is be-|fore you, the|crown is in|view; His|love is so|
 [FA]2 [DF]2 [Fd]2 | [Gc]2 [GB]2 [Gc]2 | [Fd]4 A2 | [GB]2 [Gd]2 [GB]2 | [FA]2 D2 [DG]2 | %15
w: foot- steps, di-|rect- eth the|way Of|who con- fess|Him, be- lieve,|
w: va- tion is|of- fered to-|day To|who con- fess|Him, be- lieve,|
w: bound- less, He’ll|ne- ver say|nay To|who con- fess|Him, be- lieve,|
 [DF]2 [DF]2 [CE]2 | D4 ||"^Refrain" [FA]2 | [Fd]2 [Fd]2 [Dd]2 | [Ec]4 A2 | [Ge]2 [Ge]2 [Ge]2 | %21
w: o- bey. *||||||
w: o- bey. *||||||
w: o- bey. *||||||
 [Fd]4 A2 | [GB]2 [Gd]2 [GB]2 | [FA]2 [DF]2 [DF]2 | [DF]2 [DE]2 [B,D]2 | [CA]4 [GA]2 | %26
w: |||||
w: |||||
w: |||||
 [FA]2 [DF]2 [GB]2 | [FA]2 [DF]2 [Fd]2 | [Gc]2 [GB]2 [Gc]2 | [Fd]4 A2 | [GB]2 [Gd]2 [GB]2 | %31
w: |||||
w: |||||
w: |||||
 [FA]2 D2 [DG]2 | [DF]2 [DF]2 [CE]2 | D4 |] %34
w: |||
w: |||
w: |||
V:2
 x2 | x6 | x6 | x6 | x6 | x6 | x6 | x6 | x6 | x6 | x6 | x6 | x4 A2 | x6 | x2 D2 x2 | x6 | D4 || %17
w: ||||||||||||all||and|||
w: ||||||||||||all||and|||
w: ||||||||||||those||and|||
 x2 | x6 | x4 A2 | x6 | x4 A2 | x6 | x6 | x6 | x6 | x6 | x6 | x6 | x4 A2 | x6 | x2 D2 x2 | x6 | %33
w: ||||||||||||||||
w: ||||||||||||||||
w: ||||||||||||||||
 D4 |] %34
w: |
w: |
w: |
V:3
 [D,D]2 | [D,D]2 [D,A,]2 [D,D]2 | [D,D]2 [D,A,]2 [D,A,]2 | A,2 [A,E]2 A,2 | [D,A,]4 [D,D]2 | %5
w: ~|~ ~ ~|~ ~ ~|~ ~ ~|~ ~|
 [G,D]2 [G,B,]2 [G,D]2 | [G,B,]2 [G,C]2 [G,D]2 | [D,D]2 [D,D]2 [F,A,]2 | A,4 [A,,D]2 | %9
w: ~ ~ ~|~ ~ ~|~ ~ ~|~ ~|
 [D,D]2 [D,A,]2 [D,D]2 | [D,D]2 [D,A,]2 [D,A,]2 | A,2 [=A,E]2 [^A,E]2 | [B,D]4 [F,D]2 | %13
w: ~ ~ ~|~ ~ ~|~ ~ ~|~ ~|
 [G,D]2 [G,B,]2 [G,D]2 | [D,D]2 [F,A,]2 [E,B,]2 | A,2 [A,,A,]2 [A,,G,]2 | [D,F,]4 || [D,D]2 | %18
w: ~ ~ ~|~ ~ ~|Be- lieve and|bey,|be-|
 [D,A,]2 [D,A,]2 [F,A,]2 | A,4 A,2 | [A,C]2 [A,C]2 [A,C]2 | [B,D]4 [F,D]2 | [G,D]2 [G,B,]2 [G,D]2 | %23
w: lieve and o-|bey; The|is call- ing,|no long-|er de- lay:|
 [D,D]2 [D,A,]2 [D,A,]2 | [B,,^G,]2 [B,,G,]2 [E,G,]2 | [A,,A,]4 [C,A,]2 | [D,A,]2 [D,A,]2 [D,D]2 | %27
w: The light of|His mer- cy|shines bright|on the way|
 [D,D]2 [D,A,]2 [D,A,]2 | A,2 [=A,E]2 [^A,E]2 | [B,D]4 [F,D]2 | [G,D]2 [G,B,]2 [G,D]2 | %31
w: Of all who|con- fess Him,|lieve, and|o- bey. *|
 [D,D]2 [F,A,]2 [E,B,]2 | A,2 [A,,A,]2 [A,,G,]2 | [D,F,]4 |] %34
w: |||
V:4
 x2 | x6 | x6 | A,2 A,2 x2 | x6 | x6 | x6 | x6 | A,4 x2 | x6 | x6 | ^A,2 x4 | x6 | x6 | x6 | %15
w: |||~ ~|||||~|||~||||
 A,2 x4 | x4 || x2 | x6 | A,4 A,2 | x6 | x6 | x6 | x6 | x6 | x6 | x6 | x6 | ^A,2 x4 | x6 | x6 | %31
w: o-||||Mas- ter|||||||||be-|||
 x6 | A,2 x4 | x4 |] %34
w: |||

